X:1
T:Filibustering
M:2/4
L:1/8
K:Bb
D/2-E/2| FF GF| Bc dd| cc d3/2 c/2| cF z F| ed cB| AG FF| Bd cF| BB z|\
 D| G^F GB| AD DD| _ED BG| ^F A2 D| G^F GA| Bc dd| BG A^F| GG z||
